!!!!SEGMENT: pl-kk--kk-i-513--009_haser-august-ferdinand--miserere-audite-me-o-dabis-gaudium.krn
!!!cenid: 17xx:1849
!!!COM: Häser, August Ferdinand
!!!COM-rismid: pe37240
!!!CDT: 1779/10/15-1844/11/01
!!!CNT: German
!!!OPR: Miserere
!!!OTL: Audite me o dabis gaudium
!!!OMV: 009
!!!PDT:
!!!AGN: Sacred
!!!SMS-siglum: PL-Kk
!!!SMS-shelfmark: Kk.I.513
!!!SMS-shelfwork: 001-009 M
!!!SMS-variant:
!!!SMS-altvar:
!!!NIFC-rismid: 1001138496
!!!system-decoration: [(s1,s2,s3,s4)][(s5,s6)]
**kern	**kern	**kern	**text	**kern	**text	**kern	**text	**dynam	**kern	**text	**dynam
*part6	*part5	*part4	*part4	*part3	*part3	*part2	*part2	*part2	*part1	*part1	*part1
*staff6	*staff5	*staff4	*staff4	*staff3	*staff3	*staff2	*staff2	*	*staff1	*staff1	*
*Iempty	*Iorgan	*Ibass	*	*Itenor	*	*Ialto	*	*	*Isoprn	*	*
*	*I"[Organo]	*I"Basso.	*	*I"Tenore.	*	*I"Alto	*	*	*I"Soprano.	*	*
*	*I'[org]	*I'B	*	*I'T	*	*I'A	*	*	*I'S	*	*
*clefF4	*clefG2	*clefF4	*	*clefC4	*	*clefG2	*	*	*clefG2	*	*
*k[f#]	*k[f#]	*k[f#]	*	*k[]	*	*k[f#]	*	*	*k[f#]	*	*
*M3/4	*M3/4	*M3/4	*	*M3/4	*	*M3/4	*	*	*M3/4	*	*
*2\right	*2\right	*2\right	*	*2\right	*	*	*	*	*	*	*
!LO:TX:t=P:problem:all\right:global	!LO:TX:t=P:problem:all\right:global	!LO:TX:t=P:problem:all\right:global	!	!LO:TX:t=P:problem:all\right:global	!	!	!	!	!LO:TX:t=P:problem:all\right:global	!	!
!	!LO:TX:t=P:w źródle brak oznaczenia tempa:problem	!	!	!	!	!LO:TX:t=P:w źródle brak oznaczenia tempa:problem	!	!	!LO:TX:t=P:w źródle brak oznaczenia tempa:problem	!	!
!	!	!	!	!	!	!LO:TX:a:Bi:t=No 9.:problem:'No 9.' znajduje się przed kluczem i oznaczeniem metrum na pięciolinii	!	!	!LO:TX:a:Bi:t=No 9.:problem:'No 9.' znajduje się przed kluczem i oznaczeniem metrum na pięciolinii	!	!
!	!LO:TX:a:Bi:t=No 9.:problem:'No 9.' znajduje się przed kluczem i oznaczeniem metrum na pięciolinii	!LO:TX:a:Bi:t=No 9.:problem:'No 9.' znajduje się przed kluczem i oznaczeniem metrum na pięciolinii	!	!LO:TX:a:Bi:t=N 9.:problem:'N 9.' znajduje się przed kluczem i oznaczeniem metrum na pięciolinii	!	!	!	!	!	!	!
!	!	!	!	!LO:TX:t=P:w źródle brak znaków przykluczowych:problem	!	!	!	!	!	!	!
!	!	!	!	!LO:TX:a:Bi:t=Soli	!	!LO:TX:a:Bi:t=Soli	!	!	!LO:TX:a:Bi:t=Soli	!	!
!	!	!LO:TX:a:Bi:t=Andante:rj	!	!LO:TX:a:Bi:t=Andante:rj	!	!	!	!	!	!	!
!	!	!	!	!	!	!	!	!LO:DY:b:rj	!	!	!LO:DY:b:rj
4d 4G\	4b 4g\	4G\	Au-	4d\	Au-	4g/	Au-	p	4b\	Au-	p
=1	=1	=1	=1	=1	=1	=1	=1	=1	=1	=1	=1
*^	*^	*	*	*	*	*	*	*	*	*	*
4.d/	2.G\	4.b/	2.g\	4.G\	-di	4.d\	-di	4.g/	-di	.	4.b/	-di	.
8c#X/	.	8a#X/	.	8G\	tu-	8c#X\	tu-	8g/	tu-	.	8a#X/	tu-	.
4d/	.	4b/	.	4G\	-i	4d\	-i	4g/	-i	.	4b/	-i	.
=2	=2	=2	=2	=2	=2	=2	=2	=2	=2	=2	=2	=2	=2
2e 2c\	2ryy	8b/L	2ryy	4c\	me-	4e\	me-	4e/	me-	.	(<8b/L	me-	.
.	.	8a/J	.	.	.	.	.	.	.	.	8an/J)	.	.
.	.	[<4a/	.	4c\	-o	4c\	-o	4e/	-o	.	4a/	-o	.
4c/	8A\L	4ee/	4a\]	8A\	da-	8c\	da-	8a/	da-	.	8ee\	da-	.
!	!	!	!	!LO:TX:b:i:t=g	!	!	!	!	!	!	!	!	!
.	8G\J	.	.	8G\	-bis	8c\	-bis	8a/	-bis	.	8ee\	-bis	.
=3	=3	=3	=3	=3	=3	=3	=3	=3	=3	=3	=3	=3	=3
8.A/L	2.F#\	8.ee/L	2.a\	8.F#\	gau-	8.G/	gau-	8.a/	gau-	.	8.ee\	gau-	.
16d/Jk	.	16dd/Jk	.	16F#\	-di-	16d\	-di-	16a/	-di-	.	16dd\	-di-	.
2d/	.	2dd/	.	4F#\	-um	4d\	-um	4a/	-um	.	4dd\	-um	.
.	.	.	.	8F#\	et	8d\	et	8a/	et	.	8dd\	et	.
!	!	!	!	!	!	!	!	!LO:SIC:l:s=lae-:v	!	!	!LO:SIC:l:s=lae-:v	!	!
.	.	.	.	8F#\	lae-	8d\	le-	8a/	le-	.	8cc\	le-	.
*v	*v	*	*	*	*	*	*	*	*	*	*	*	*
*	*v	*v	*	*	*	*	*	*	*	*	*	*
=4	=4	=4	=4	=4	=4	=4	=4	=4	=4	=4	=4
2d 2G\	8.ccL 8.a/	8.G\	-ti-	8.d\	-ti-	8.a/	-ti-	.	8.cc\	-ti-	.
.	16bJk 16g/	16G\	-ti-	16d\	-ti-	16g/	-ti-	.	16b\	-ti-	.
.	4b 4g/	4G\	-am	4d\	-am	4g/	-am	.	4b\	-am	.
8G\L	4r	8G\	da-	4r	.	4r	.	.	4r	.	.
8E\J	.	8E\	-bis	.	.	.	.	.	.	.	.
!	!	!LO:LB:g=original	!	!LO:LB:g=original	!	!LO:LB:g=original	!	!	!LO:LB:g=original	!	!
=5	=5	=5	=5	=5	=5	=5	=5	=5	=5	=5	=5
8.C#X\L	4r	8.C#X/	gau-	4r	.	4r	.	.	4r	.	.
16E\Jk	.	16E\	-di-	.	.	.	.	.	.	.	.
4A\	4r	4A\	-um	4r	.	4r	.	.	4r	.	.
4e 4c#X\	8a/L	4r	.	8c#X\	da-	8g/	da-	.	8a/	da-	.
!	!	!	!	!	!	!	!	!	!LO:SIC:l:s=-bis:v	!	!
.	8qcc#X/	.	.	.	.	.	.	.	8qcc#X/	.	.
.	16b/L	.	.	8c#\	-bis	8g/	-bis	.	16b/LL	-bi	.
.	16a/JJ	.	.	.	.	.	.	.	16a/JJ	.	.
=6	=6	=6	=6	=6	=6	=6	=6	=6	=6	=6	=6
2f# 2d\	8.a/L	4r	.	8.d\	gau-	8.f#/	gau-	.	8.a/	gau-	.
.	16dd/Jk	.	.	16d\	-di-	16f#/	-di-	.	16dd\	-di-	.
.	4a/	4r	.	4d\	-um	4f#/	-um	.	4a/	-um	.
8.A\L	4r	8A\	et	4r	.	4r	.	.	4r	.	.
.	.	8F#\	lae-	.	.	.	.	.	.	.	.
16F#X\Jk	.	.	.	.	.	.	.	.	.	.	.
=7	=7	=7	=7	=7	=7	=7	=7	=7	=7	=7	=7
8.D#X\L	4r	8.D#X\	-ti-	4r	.	4r	.	.	4r	.	.
16F#X\Jk	.	16F#\	-ti-	.	.	.	.	.	.	.	.
4B\	4r	4B\	-am	4r	.	4r	.	.	4r	.	.
4f# 4d#X\	8b/L	4r	.	8d#X\	et	8a/	et	.	8b\	et	.
!	!	!	!	!	!	!LO:SIC:l:s=lae-:v	!	!	!LO:SIC:l:s=lae-:v	!	!
.	8qdd#X/	.	.	.	.	.	.	.	(>8qdd#X/	.	.
.	16cc/L	.	.	8d#\	le-	8a/	le-	.	16cc\LL	le-	.
.	16b/JJ	.	.	.	.	.	.	.	16b\JJ)	.	.
!LO:LB:g=original	!LO:LB:g=original	!	!	!	!	!	!	!	!	!	!
=8	=8	=8	=8	=8	=8	=8	=8	=8	=8	=8	=8
!	!	!LO:TX:a:Bi:t=1	!	!	!	!	!	!	!	!	!
2g 2e\	8.b/L	2.r	.	8.e\	-ti-	8.g/	-ti-	.	8.b\	-ti-	.
.	16ee/Jk	.	.	16e\	-ti-	16g/	-ti-	.	16ee\	-ti-	.
.	4b/	.	.	4e\	-am	4g/	-am	.	4b\	-am,	.
4r	4r	.	.	4r	.	4r	.	.	4r	.	.
!	!	!LO:LB:g=original	!	!	!	!LO:LB:g=original	!	!	!LO:LB:g=original	!	!
=9||	=9||	=9||	=9||	=9||	=9||	=9||	=9||	=9||	=9||	=9||	=9||
*	*	*clefF4	*	*clefC4	*	*clefG2	*	*	*clefG2	*	*
*k[f#c#]	*k[f#c#]	*k[f#c#]	*	*k[f#c#]	*	*k[f#c#]	*	*	*k[f#c#]	*	*
*M4/4	*M4/4	*M4/4	*	*M4/4	*	*M4/4	*	*	*M4/4	*	*
*met(c)	*met(c)	*met(c)	*	*met(c)	*	*met(c)	*	*	*met(c)	*	*
!	!LO:TX:t=P:w źródle brak oznaczenia tempa:problem	!	!	!	!	!	!	!	!	!	!
!	!	!LO:TX:a:Bi:t=Piu moſso.:rj	!	!LO:TX:a:Bi:t=Piu moſso:problem:w źródle tekst znajduje się na pięciolinni przed kluczem i znaczeniem metrum	!	!LO:TX:a:Bi:t=Piu moſso:rj	!	!	!LO:TX:a:B:t=Piu moſso.:rj	!	!
!	!	!	!	!	!	!	!	!	!	!	!LO:DY:a:rj
4r	4r	4r	.	4r	.	4r	.	.	4r	.	f
!	!	!	!	!LO:TX:a:Bi:t=tutti:rj	!	!LO:TX:a:Bi:t=tutti	!	!	!LO:TX:a:Bi:t=tutti.	!	!
!	!	!	!	!	!	!	!	!LO:DY:b:rj	!	!	!
4B 4A\	4dd#X 4f#/	4A\	Et	4B\	Et	4f#/	Et	f	4dd#X\	et	.
4B 4G\	4ee 4e/	4G\	e-	4B\	e-	4e/	e-	.	4ee\	e-	.
4e 4G#X\	4ddn 4b/	4G#X\	-xul-	4e\	-xul-	4b/	-xul-	.	4ddn\	-xul-	.
!	!	!	!	!LO:LB:g=original	!	!	!	!	!	!	!
=10	=10	=10	=10	=10	=10	=10	=10	=10	=10	=10	=10
*^	*^	*	*	*	*	*	*	*	*	*	*
2e/	4A\	2cc#X/	4a\	4A\	-ta-	4e\	-ta-	4a/	-ta-	.	4cc#X\	-ta-	.
.	4A#X\	.	4g\	4A#X\	-bunt	4e\	-bunt	4g/	-bunt	.	4cc#\	-bunt	.
4d/	4B\	4dd/	4f#\	4B\	e-	4d\	ex-	4f#/	e-	.	4dd\	e-	.
4c#/	4An\	4ff#/	4f#\	4An\	-xul-	4c#X\	-ul-	4f#/	-xul-	.	4ff#\	-xul-	.
=11	=11	=11	=11	=11	=11	=11	=11	=11	=11	=11	=11	=11	=11
4B/	2G\	2b/	4f#\	2G\	-ta-	(>4B\	-ta-	(<4f#/	-ta-	.	2b/	-ta-	.
4r	.	.	2e\	.	.	4e\	.	2e/	-bunt	.	.	.	.
4A/	2F#\	2a/	.	2F#\	-bunt	4A\)	.	.	.	.	2a/	-bunt	.
4r	.	.	4d\	.	.	4d\	-bunt	4d/)	.	.	.	.	.
*	*	*v	*v	*	*	*	*	*	*	*	*	*	*
=12	=12	=12	=12	=12	=12	=12	=12	=12	=12	=12	=12	=12
!	!	!	!	!	!	!	!	!	!	!	!	!LO:HP:a:Bi:t=dimi
2B/	4E\	1g 1e	4E/	oſ-	4B\	oſ-	4e/	os-	.	4g/	os-	>
.	4D\	.	8D/	-sa	8B\	-sa	4e/	-ſa	.	4g/	-sa	.
.	.	.	8D/	hu-	8B\	hu-	.	.	.	.	.	.
4A#X/	4C#X\	.	4C#/	-mi-	4A#X\	-mi-	8e/	hu-	.	8g/	hu-	.
.	.	.	.	.	.	.	8e/	-mi-	.	8g/	-mi-	.
4B/	4BB\	.	4BB/	-li-	4B\	-li-	4e/	-li-	.	4g/	-li-	.
*v	*v	*	*	*	*	*	*	*	*	*	*	*
=13	=13	=13	=13	=13	=13	=13	=13	=13	=13	=13	=13
*	*^	*	*	*	*	*	*	*	*	*	*
1A#X 1AA#X	2g/	1e 1c#	2AA#X/	-a-	2c#X\	-a-	2e/	-a-	.	2g/	-a-	.
.	2f#/	.	2AA#/	-ta	2c#\	-ta	2e/	-ta	.	2f#/	-ta	.
!	!	!	!LO:LB:g=original	!	!	!	!LO:LB:g=original	!	!	!LO:LB:g=original	!	!
*	*v	*v	*	*	*	*	*	*	*	*	*	*
=14	=14	=14	=14	=14	=14	=14	=14	=14	=14	=14	=14
!	!	!	!	!	!	!	!	!	!	!	!LO:DY:a:rj
4r	4r	4r	.	4r	.	4r	.	.	4r	.	f
!	!	!	!	!	!	!	!	!LO:DY:b:rj	!	!	!
4A#X\	4cc# 4e\	4A#X\	et	4e\	et	4f#/	et	f	4cc#\	et	.
4B\	4dd 4f# 4d\	4B\	e-	4d\	e-	4f#/	e-	.	4dd\	e-	.
4F#\	4a#X 4e 4c#/	4F#\	-xul-	4c#\	-xul-	4e/	-xul-	.	4a#X/	-xul-	.
!LO:LB:g=original	!LO:LB:g=original	!	!	!	!	!	!	!	!	!	!
=15	=15	=15	=15	=15	=15	=15	=15	=15	=15	=15	=15
4G\	4b 4d/	4G\	-ta-	4B\	-ta-	4d/	-ta-	.	4b/	-ta-	.
4D#X\	4f# 4B/	4D#X\	-bunt	4B\	-bunt	4f#/	-bunt	.	4f#/	-bunt	.
4E\	4g 4B/	4E\	e-	4B\	e-	4e/	e-	.	4g/	e-	.
4Dn\	4b 4g 4e/	4Dn\	-xul-	4G/	-xul-	4e/	-xul-	.	4b/	-xul-	.
!	!	!	!	!LO:LB:g=original	!	!	!	!	!	!	!
=16	=16	=16	=16	=16	=16	=16	=16	=16	=16	=16	=16
*^	*^	*	*	*	*	*	*	*	*	*	*
!	!	!	!	!	!	!	!	!	!	!	!LO:TX:b:t=a	!	!
!	!	!	!	!	!	!	!	!	!	!	!LO:TX:t=P:problem:w źródle skreślone górne dźwięki na 1 i 2 miarę	!	!
1A	2C#\	4.a/	2e\	2C#/	-ta-	2A/	-ta-	2e/	-ta-	.	(>4.a\	-ta-	.
!	!	!	!	!	!	!	!	!	!	!	!LO:TX:b:t=g	!	!
.	.	8g/	.	.	.	.	.	.	.	.	8g\)	.	.
.	2D\	2f#/	2ryy	2D/	-bunt	2A/	-bunt	2d/	-bunt	.	2f#/	-bunt	>
*v	*v	*	*	*	*	*	*	*	*	*	*	*	*
*	*v	*v	*	*	*	*	*	*	*	*	*	*
=17	=17	=17	=17	=17	=17	=17	=17	=17	=17	=17	=17
1G 1GG	1e 1d 1B	2GG/	oſ-	2B\	oſ-	2d/	oſ-	.	2e/	os-	.
.	.	4.GG/	-sa	4.B\	-sa	2d/	-sa	.	4.e/	-sa	.
.	.	8GG/	hu-	8B\	hu-	.	.	.	8e/	hu-	.
!	!	!LO:LB:g=original	!	!	!	!	!	!	!LO:LB:g=original	!	!
=18	=18	=18	=18	=18	=18	=18	=18	=18	=18	=18	=18
1G#X 1GG#X	1e#X 1d 1B	2GG#X/	-mi-	2B\	-mi-	2d/	hu-	.	2e#X/	-mi-	.
.	.	2GG#/	-li-	2B\	-li-	4d/	-mi-	.	2e#/	-li-	.
.	.	.	.	.	.	4d/	-li-	.	.	.	.
=19	=19	=19	=19	=19	=19	=19	=19	=19	=19	=19	=19
*^	*	*	*	*	*	*	*	*	*	*	*
2A/	1AA	1f# 1d	[<1AA	-a-	2A/	-a-	1d	-a-	.	[<2f#/	-a-	.
4F#/	.	.	.	.	4F#/	.	.	.	.	2f#/]	.	.
4D/	.	.	.	.	4D/	.	.	.	.	.	.	.
=20	=20	=20	=20	=20	=20	=20	=20	=20	=20	=20	=20	=20
*	*	*^	*	*	*	*	*	*	*	*	*	*
2.A/	1AA	1en	2d\	1AA]	.	2.A/	.	2d/	.	.	1en	.	.
.	.	.	2c#X\	.	.	.	.	2c#X/	.	.	.	.	.
4G/	.	.	.	.	.	4G/	-a-	.	.	.	.	.	.
*v	*v	*	*	*	*	*	*	*	*	*	*	*	*
*	*v	*v	*	*	*	*	*	*	*	*	*	*
=21	=21	=21	=21	=21	=21	=21	=21	=21	=21	=21	=21
2F# 2D\	2d 2A/	2D\	-ta.	2F#/	-ta	2d/	-ta	.	2d/	-ta.	.
!	!	!	!	!	!	!	!	!	!LO:N:vis=1	!	!
2r	2r	2r	.	2rF	.	2rg	.	.	2rg	.	.
==	==	==	==	==	==	==	==	==	==	==	==
*-	*-	*-	*-	*-	*-	*-	*-	*-	*-	*-	*-
!!title: @{OTL};
!!!RDF**kern: > = above
!!!RDF**kern: < = below
!!!RDF**dynam: > = "dimin", fontstyle= "bold-italic"
!!!RDF**dynam: < = "cres", fontstyle= "bold-italic"
!!!EED: Wojciech Jakubiak-Danek
!!!EST: 2021-01-03
!!!URL-scan: http://repozytorium.nifc.pl/skany/pl-kk-nut--i-513
!!!ONB-nifc:
!!!ENC: Andrzej Kubiczek
!!!END: 2021-01-01
